svg/media/shuffle_2_line.svg

<?xml version="1.0" encoding="UTF-8"?>
<svg width="24px" height="24px" viewBox="0 0 24 24" version="1.1" xmlns="http://www.w3.org/2000/svg" xmlns:xlink="http://www.w3.org/1999/xlink">
    <title>shuffle_2_line</title>
    <g id="Icon" stroke="none" stroke-width="1" fill="none" fill-rule="evenodd">
        <g id="Media" transform="translate(-720.000000, -192.000000)" fill-rule="nonzero">
            <g id="shuffle_2_line" transform="translate(720.000000, 192.000000)">
                <path d="M24,0 L24,24 L0,24 L0,0 L24,0 Z M12.5935,23.2578 L12.5819,23.2595 L12.5109,23.295 L12.4919,23.2987 L12.4767,23.295 L12.4057,23.2595 C12.3958,23.2564 12.387,23.259 12.3821,23.2649 L12.378,23.2758 L12.3609,23.7031 L12.3659,23.7235 L12.3769,23.7357 L12.4805,23.8097 L12.4953,23.8136 L12.5071,23.8097 L12.6107,23.7357 L12.6233,23.7197 L12.6267,23.7031 L12.6096,23.2758 C12.6076,23.2657 12.601,23.2593 12.5935,23.2578 Z M12.8584,23.1453 L12.8445,23.1473 L12.6598,23.2397 L12.6499,23.2499 L12.6472,23.2611 L12.6651,23.6906 L12.6699,23.7034 L12.6784,23.7105 L12.8793,23.8032 C12.8914,23.8069 12.9022,23.803 12.9078,23.7952 L12.9118,23.7812 L12.8777,23.1665 C12.8753,23.1546 12.8674,23.147 12.8584,23.1453 Z M12.143,23.1473 C12.1332,23.1424 12.1222,23.1453 12.1156,23.1526 L12.1099,23.1665 L12.0758,23.7812 C12.0751,23.7927 12.0828,23.8019 12.0926,23.8046 L12.1083,23.8032 L12.3092,23.7105 L12.3186,23.7024 L12.3225,23.6906 L12.3404,23.2611 L12.3372,23.2485 L12.3278,23.2397 L12.143,23.1473 Z" id="MingCute"></path>
                <path d="M6.30143,6 C7.63253,6 8.87116884,6.66163313 9.61251609,7.75570919 L9.7314,7.94202 L13.9836,15.029 C14.3172,15.5850615 14.8975598,15.9419089 15.5374858,15.9935182 L15.6986,16 L16.8931,16 L16.9123768,15.5852208 L16.9123768,15.5852208 L16.9349944,15.2246624 C16.938908,15.169316 16.94286,15.1164 16.9468,15.066 C16.9739,14.7205 17.2988,14.5092 17.5784,14.6554 L17.8843359,14.8196484 L17.8843359,14.8196484 L18.2441125,15.0231125 C18.3082219,15.0603219 18.3743195,15.0991883 18.4422779,15.1397232 L18.8713369,15.4030479 C18.9462281,15.4503031 19.022725,15.49925 19.1007,15.5499 L19.5642531,15.8599062 C19.6368234,15.9098781 19.707007,15.9589016 19.7747402,16.0068258 L20.1512254,16.2799742 L20.1512254,16.2799742 L20.4658449,16.5195039 C20.5129562,16.5562219 20.5573625,16.5912375 20.599,16.6244 C20.8348,16.8121 20.8243,17.19 20.5764,17.3863 L20.2964094,17.6031094 L20.2964094,17.6031094 L19.9555,17.85545 L19.9555,17.85545 L19.5559406,18.1370406 L19.5559406,18.1370406 L19.1,18.4416 L19.1,18.4416 L18.6379797,18.7333172 L18.6379797,18.7333172 L18.2217375,18.9816375 L18.2217375,18.9816375 L17.8572266,19.1874891 L17.8572266,19.1874891 L17.5504,19.3518 L17.5504,19.3518 C17.275,19.4954 16.9785,19.3162 16.9521,18.9922 L16.9266136,18.6446448 L16.9266136,18.6446448 L16.9032968,18.2304464 L16.9032968,18.2304464 L16.8934,18 L15.6986,18 C14.3674526,18 13.1288382,17.3383579 12.3874852,16.2443064 L12.2686,16.058 L8.01641,8.97101 C7.68277308,8.41493923 7.10239343,8.05809118 6.46252743,8.00648184 L6.30143,8 L4,8 C3.44772,8 3,7.55228 3,7 C3,6.48715929 3.38604429,6.06449214 3.88337975,6.00672766 L4,6 L6.30143,6 Z M10.0145,13.6425 C10.4881,13.9267 10.6416,14.5409 10.3575,15.0145 L9.7314,16.058 C9.00851,17.2628 7.70648,18 6.30143,18 L4,18 C3.44772,18 3,17.5523 3,17 C3,16.4477 3.44772,16 4,16 L6.30143,16 C7.00395,16 7.65497,15.6314 8.01641,15.029 L8.64251,13.9855 C8.92666,13.5119 9.54092,13.3584 10.0145,13.6425 Z M17.5784,4.65544 L17.8843359,4.81968031 L17.8843359,4.81968031 L18.2441125,5.023125 C18.3082219,5.06033062 18.3743195,5.09919312 18.4422779,5.13972418 L18.8713369,5.4030266 C18.9462281,5.45027859 19.022725,5.4992225 19.1007,5.54987 L19.5642531,5.85990437 C19.6368234,5.90987937 19.707007,5.95890516 19.7747402,6.00683094 L20.1512254,6.27997937 L20.1512254,6.27997937 L20.4658449,6.51949031 C20.5129563,6.55620359 20.5573625,6.59121375 20.599,6.62437 C20.8348,6.81209 20.8243,7.18996 20.5764,7.38628 L20.2964094,7.6031225 L20.2964094,7.6031225 L19.9555,7.8554775 C19.8319625,7.9448175 19.69865,8.03903062 19.5559406,8.13707125 L19.1,8.44163 L19.1,8.44163 L18.6379797,8.73331781 L18.6379797,8.73331781 L18.2217375,8.981635 L18.2217375,8.981635 L17.8572266,9.18750219 L17.8572266,9.18750219 L17.5504,9.35184 L17.5504,9.35184 C17.275,9.4954 16.9785,9.3162 16.9521,8.99223 L16.9266136,8.644634 L16.9266136,8.644634 L16.9032968,8.2304428 L16.9032968,8.2304428 L16.8934,8 L15.6986,8 C15.0500462,8 14.4454592,8.31407337 14.0720325,8.83620413 L13.9836,8.97101 L13.3575,10.0145 C13.0733,10.4881 12.4591,10.6416 11.9855,10.3575 C11.5457286,10.0936 11.3819617,9.54514194 11.5882766,9.08896256 L11.6425,8.9855 L12.2686,7.94202 C12.9534526,6.80061158 14.1580515,6.07889535 15.4776683,6.00608701 L15.6986,6 L16.8931,6 L16.9123768,5.585204 L16.9123768,5.585204 L16.9349944,5.2246672 C16.938908,5.1693276 16.94286,5.11642 16.9468,5.06603 C16.9739,4.72048 17.2988,4.50921 17.5784,4.65544 Z" id="形状" fill="#09244B"></path>
            </g>
        </g>
    </g>
</svg>

<svg xmlns="http://www.w3.org/2000/svg" width="24" height="24"><g fill="none" fill-rule="nonzero"><path d="M24 0v24H0V0h24ZM12.594 23.258l-.012.002-.071.035-.02.004-.014-.004-.071-.036c-.01-.003-.019 0-.024.006l-.004.01-.017.428.005.02.01.013.104.074.015.004.012-.004.104-.074.012-.016.004-.017-.017-.427c-.002-.01-.009-.017-.016-.018Zm.264-.113-.014.002-.184.093-.01.01-.003.011.018.43.005.012.008.008.201.092c.012.004.023 0 .029-.008l.004-.014-.034-.614c-.003-.012-.01-.02-.02-.022Zm-.715.002a.023.023 0 0 0-.027.006l-.006.014-.034.614c0 .012.007.02.017.024l.015-.002.201-.093.01-.008.003-.011.018-.43-.003-.012-.01-.01-.184-.092Z"/><path fill="#09244B" d="M6.301 6a4 4 0 0 1 3.312 1.756l.118.186 4.253 7.087a2 2 0 0 0 1.553.965L15.7 16h1.194l.02-.415.022-.36.012-.159c.027-.346.352-.557.631-.41l.306.164.36.203.198.117.43.263.229.147.463.31.21.147.377.273.315.24.133.104c.236.188.225.566-.023.762l-.28.217-.34.252-.4.282-.456.305-.462.291-.416.249-.365.205-.307.165c-.275.143-.572-.036-.598-.36l-.025-.347-.024-.415-.01-.23H15.7a4 4 0 0 1-3.312-1.756l-.118-.186-4.253-7.087a2 2 0 0 0-1.553-.965L6.3 8H4a1 1 0 0 1-.117-1.993L4 6h2.301Zm3.714 7.643a1 1 0 0 1 .342 1.371l-.626 1.044A4 4 0 0 1 6.301 18H4a1 1 0 1 1 0-2h2.301a2 2 0 0 0 1.715-.971l.627-1.043a1 1 0 0 1 1.371-.344Zm7.563-8.988.306.165.36.203.198.117.43.263.229.147.463.31.21.147.377.273.315.24.133.104c.236.188.225.566-.023.762l-.28.217-.34.252c-.124.09-.257.184-.4.282l-.456.305-.462.291-.416.249-.365.206-.307.164c-.275.143-.572-.036-.598-.36l-.025-.347-.024-.415-.01-.23H15.7a2 2 0 0 0-1.627.836l-.088.135-.626 1.043a1 1 0 0 1-1.77-.925l.055-.104.626-1.043a4 4 0 0 1 3.209-1.936l.22-.006h1.195l.02-.415.022-.36.012-.159c.027-.346.352-.557.631-.41Z"/></g></svg>
